car-seat-heater.svg

<svg fill="currentColor" viewBox="0 0 24 24"><path d="M5 18S2 10 2 6s2-4 2-4h1s1 0 1 1-1 1-1 3 3 4 3 7-3 5-3 5m10-1c1.1 0 2 .9 2 2v1c0 1.1-.9 2-2 2H9c-2 0-3-1.8-3-1.8-.2-.2-.3-.6 0-.8 0 0 3-2.5 4-2.5h5M13.7 3.4l-1.4 3.4 1.4 3.4-2 4.8-1.7-1.4 1.4-3.4L10 6.8 12 2zm4.2 0-1.4 3.4 1.4 3.4-2 4.8-1.7-1.4 1.4-3.4-1.4-3.4 2-4.8zm4.1 0-1.4 3.4 1.4 3.4-2 4.8-1.7-1.4 1.4-3.4-1.4-3.4 2-4.8z"/></svg>

<svg  viewBox="0 0 24 24" fill="currentColor"><path  d="M5 18C5 18 2 10 2 6S4 2 4 2H5C5 2 6 2 6 3S5 4 5 6 8 10 8 13 5 18 5 18M15 17C16.1 17 17 17.9 17 19V20C17 21.1 16.1 22 15 22H9C7 22 6 20.2 6 20.2C5.8 20 5.7 19.6 6 19.4C6 19.4 9 16.9 10 16.9H15M13.7 3.4L12.3 6.8L13.7 10.2L11.7 15L10 13.6L11.4 10.2L10 6.8L12 2L13.7 3.4M17.9 3.4L16.5 6.8L17.9 10.2L15.9 15L14.2 13.6L15.6 10.2L14.2 6.8L16.2 2L17.9 3.4M22 3.4L20.6 6.8L22 10.2L20 15L18.3 13.6L19.7 10.2L18.3 6.8L20.3 2L22 3.4"/></svg>
